src/assets/logo.svg

<svg width="133" height="24" viewBox="0 0 133 24" fill="none" xmlns="http://www.w3.org/2000/svg">
    <path d="M5.20583 15.7049V0.792232H0V20.2718H14.9638V15.7049H5.20583Z" fill="#6D6AFE"/>
    <path d="M21.6801 20.2718V5.12621H16.4743V20.2718H21.6801ZM21.6801 3.96117V0H16.4743V3.96117H21.6801Z" fill="#6D6AFE"/>
    <path d="M33.1713 4.66019C31.117 4.66019 29.5062 5.42913 28.409 6.71068V5.12621H23.2032V20.2718H28.409V13.4913C28.4557 10.5786 29.7397 9.34369 31.8407 9.34369C33.6382 9.34369 34.3385 10.2524 34.3385 12.4194V20.2718H39.5444V11.5107C39.5444 6.92039 37.8169 4.66019 33.1713 4.66019Z" fill="#6D6AFE"/>
    <path d="M46.0405 10.0893V0H40.8347V20.2718H46.0405V16.7068L48.2116 14.167L50.7328 20.2718H56.4755L53.184 12.233H49.869L56.0087 5.12621H50.3359L46.0405 10.0893Z" fill="#6D6AFE"/>
    <path d="M67.0849 20.7379C70.2364 20.7379 74.1116 18.9437 74.1116 12.699C74.1116 6.45437 70.2364 4.66019 67.0849 4.66019C65.3341 4.66019 63.77 5.17281 62.5094 6.03495V0H57.3035V20.2718H62.5094V19.3631C63.77 20.2485 65.3341 20.7379 67.0849 20.7379ZM65.7076 16.1942C63.91 16.1942 62.5094 15.2854 62.5094 12.699V12.5126C62.5794 10.0893 63.9567 9.20388 65.7076 9.20388C67.7152 9.20388 68.9058 10.2524 68.9058 12.699C68.9058 15.1689 67.7152 16.1942 65.7076 16.1942Z" fill="#6D6AFE"/>
    <path d="M74.935 20.2718H80.1409V13.9573C80.1876 11.0214 81.5182 9.32039 86.1638 9.32039V4.66019C83.3624 4.66019 81.3781 5.63883 80.1409 7.1068V5.12621H74.935V20.2718Z" fill="#6D6AFE"/>
    <path d="M93.541 20.7379C95.2685 20.7379 96.8559 20.2485 98.1165 19.3631V20.2718H103.322V5.12621H98.1165V6.03495C96.8559 5.17281 95.2685 4.66019 93.541 4.66019C90.3895 4.66019 86.5143 6.45437 86.5143 12.699C86.5143 18.9437 90.3895 20.7379 93.541 20.7379ZM94.9183 16.1942C92.9107 16.1942 91.7201 15.1689 91.7201 12.699C91.7201 10.2524 92.9107 9.20388 94.9183 9.20388C96.7159 9.20388 98.1165 10.1359 98.1165 12.699C98.1165 15.2854 96.7159 16.1942 94.9183 16.1942Z" fill="#6D6AFE"/>
    <path d="M104.613 20.2718H109.819V13.9573C109.865 11.0214 111.196 9.32039 115.841 9.32039V4.66019C113.04 4.66019 111.056 5.63883 109.819 7.1068V5.12621H104.613V20.2718Z" fill="#6D6AFE"/>
    <path d="M127.794 5.12621V11.7204C127.234 12.3495 126.23 12.6058 125.063 12.6058C122.588 12.6058 121.865 11.8369 121.865 10.4155V5.12621H116.659V10.7883C116.659 14.9359 119.6 17.1728 123.686 17.1728C125.203 17.1728 126.604 16.8466 127.794 16.2874V16.8466C127.794 18.9204 127 19.666 124.946 19.666C123.242 19.666 122.425 19.1534 122.191 17.965H116.962C117.383 22.2524 119.694 24 124.946 24C130.666 24 133 21.9029 133 16.4505V5.12621H127.794Z" fill="#6D6AFE"/>
</svg>

<svg xmlns="http://www.w3.org/2000/svg" width="133" height="24" fill="none"><path fill="#6D6AFE" d="M5.206 15.705V.792H0v19.48h14.964v-4.567H5.206ZM21.68 20.272V5.126h-5.206v15.146h5.206Zm0-16.31V0h-5.206v3.961h5.206ZM33.171 4.66c-2.054 0-3.665.77-4.762 2.05V5.127h-5.206v15.146h5.206v-6.78c.047-2.913 1.33-4.148 3.432-4.148 1.797 0 2.498.908 2.498 3.075v7.853h5.205V11.51c0-4.59-1.727-6.85-6.373-6.85ZM46.04 10.09V0h-5.205v20.272h5.206v-3.565l2.17-2.54 2.522 6.105h5.742l-3.291-8.039h-3.315l6.14-7.107h-5.673L46.04 10.09ZM67.085 20.738c3.151 0 7.027-1.794 7.027-8.039 0-6.245-3.876-8.039-7.027-8.039-1.75 0-3.315.513-4.576 1.375V0h-5.206v20.272h5.206v-.909c1.261.886 2.825 1.375 4.576 1.375Zm-1.377-4.544c-1.798 0-3.199-.909-3.199-3.495v-.186c.07-2.424 1.448-3.31 3.199-3.31 2.007 0 3.198 1.05 3.198 3.496 0 2.47-1.19 3.495-3.198 3.495ZM74.935 20.272h5.206v-6.315c.047-2.936 1.377-4.637 6.023-4.637V4.66c-2.802 0-4.786.979-6.023 2.447v-1.98h-5.206v15.145ZM93.541 20.738c1.728 0 3.315-.49 4.576-1.375v.909h5.205V5.126h-5.206v.909c-1.26-.862-2.847-1.375-4.575-1.375-3.151 0-7.027 1.794-7.027 8.039 0 6.245 3.876 8.039 7.027 8.039Zm1.377-4.544c-2.007 0-3.198-1.025-3.198-3.495 0-2.447 1.19-3.495 3.198-3.495 1.798 0 3.198.932 3.198 3.495 0 2.586-1.4 3.495-3.198 3.495ZM104.613 20.272h5.206v-6.315c.046-2.936 1.377-4.637 6.022-4.637V4.66c-2.801 0-4.785.979-6.022 2.447v-1.98h-5.206v15.145ZM127.794 5.126v6.594c-.56.63-1.564.886-2.731.886-2.475 0-3.198-.77-3.198-2.19v-5.29h-5.206v5.662c0 4.148 2.941 6.385 7.027 6.385 1.517 0 2.918-.326 4.108-.886v.56c0 2.073-.794 2.819-2.848 2.819-1.704 0-2.521-.513-2.755-1.701h-5.229c.421 4.287 2.732 6.035 7.984 6.035 5.72 0 8.054-2.097 8.054-7.55V5.127h-5.206Z"/></svg>
